UI/data/themes/Dark/locked.svg

<svg height="16pt" viewBox="0 0 16 16" width="16pt" xmlns="http://www.w3.org/2000/svg"><path d="m8 1c-2.199219 0-4 1.800781-4 4v2h-2v8h12v-8h-2v-2c0-2.199219-1.800781-4-4-4zm0 2c1.121094 0 2 .878906 2 2v2h-4v-2c0-1.121094.878906-2 2-2zm0 0" fill="#d2d2d2"/></svg>

<?xml version="1.0" encoding="UTF-8"?>
<svg xmlns="http://www.w3.org/2000/svg" xmlns:xlink="http://www.w3.org/1999/xlink" width="16pt" height="16pt" viewBox="0 0 16 16" version="1.1">
<g id="surface1">
<path style=" stroke:none;fill-rule:nonzero;fill:rgb(82.352941%,82.352941%,82.352941%);fill-opacity:1;" d="M 8 1 C 5.800781 1 4 2.800781 4 5 L 4 7 L 2 7 L 2 15 L 14 15 L 14 7 L 12 7 L 12 5 C 12 2.800781 10.199219 1 8 1 Z M 8 3 C 9.121094 3 10 3.878906 10 5 L 10 7 L 6 7 L 6 5 C 6 3.878906 6.878906 3 8 3 Z M 8 3 "/>
</g>
</svg>
